images_elementary_svg/cmd/32/de/italic.svg

<svg height="32" width="32" xmlns="http://www.w3.org/2000/svg" xmlns:xlink="http://www.w3.org/1999/xlink"><radialGradient id="a" cx="11.680322" cy="15.261165" gradientTransform="matrix(-1.863628 -.00000004 .00000006 -2.5413115 29.805481 50.079055)" gradientUnits="userSpaceOnUse" r="4.455698"><stop offset="0" stop-color="#737373"/><stop offset=".26238" stop-color="#636363"/><stop offset=".704952" stop-color="#4b4b4b"/><stop offset="1" stop-color="#3f3f3f"/></radialGradient><radialGradient id="b" cx="40" cy="43.5" gradientTransform="matrix(1 0 0 .75 -31.902462 9.875001)" gradientUnits="userSpaceOnUse" r="2" xlink:href="#e"/><radialGradient id="c" cx="9" cy="43.5" gradientTransform="matrix(1 0 0 .75 -4 9.875)" gradientUnits="userSpaceOnUse" r="2" xlink:href="#e"/><linearGradient id="d" gradientUnits="userSpaceOnUse" x1="16" x2="16" xlink:href="#f" y1="44" y2="41"/><linearGradient id="e"><stop offset="0"/><stop offset="1" stop-opacity="0"/></linearGradient><linearGradient id="f" gradientUnits="userSpaceOnUse" x1="16" x2="16" y1="44" y2="41"><stop offset="0" stop-opacity="0"/><stop offset=".5"/><stop offset="1" stop-opacity="0"/></linearGradient><g transform="matrix(.80709274 0 0 1.3158295 3.464537 -29.896499)"><path d="m8.0975375 41v3h.5c.831 0 1.5000005-.669 1.5000005-1.5s-.6690005-1.5-1.5000005-1.5z" fill="url(#b)" opacity=".2"/><path d="m4.40625 41c-.7790625 0-1.40625.627187-1.40625 1.40625v.1875c0 .779063.6271875 1.40625 1.40625 1.40625h.59375v-3z" fill="url(#c)" opacity=".2"/><path d="m5 41h3.0975375v3h-3.0975375z" fill="url(#f)" opacity=".2"/></g><path d="m15.550599 28.279186h-2.287475l-3.3715856-7.567096-1.7562602 1.235886-1.2684102 6.33121h-2.0164469l3.1656048-15.849706h2.0164471l-1.5828026 7.924853 1.6803726-1.821307 6.114387-6.103546h2.265793l-7.0142 6.905788z" fill="url(#a)" stroke="#000" stroke-opacity=".6" stroke-width=".754888" transform="matrix(1.32470039 0 0 1.3247003 .527073 -10.963391)"/><g transform="matrix(.80709274 0 0 1.3158295 13.964536 -29.896499)"><path d="m8.0975375 41v3h.5c.831 0 1.5000005-.669 1.5000005-1.5s-.6690005-1.5-1.5000005-1.5z" fill="url(#b)" opacity=".2"/><path d="m4.40625 41c-.7790625 0-1.40625.627187-1.40625 1.40625v.1875c0 .779063.6271875 1.40625 1.40625 1.40625h.59375v-3z" fill="url(#c)" opacity=".2"/><path d="m5 41h3.0975375v3h-3.0975375z" fill="url(#d)" opacity=".2"/></g><path d="m11.146484 5.5019531-4.193359 20.9960939h.2988281l3.8945309-19.4960939h2.371094l.298828-1.5zm10.900391 0-8.099609 8.0859379-1.84375 1.998047-.382813 1.914062 2.226563-2.412109 8.099609-8.0859379h1.476563l1.523437-1.5zm-5.820313 10.1855469-.470703.462891 4.691407 10.347656h.679687z" fill="#fff" opacity=".2" transform="translate(-.000001)"/></svg>

<?xml version="1.0" encoding="UTF-8" standalone="no"?>
<svg
   xmlns:dc="http://purl.org/dc/elements/1.1/"
   xmlns:cc="http://creativecommons.org/ns#"
   xmlns:rdf="http://www.w3.org/1999/02/22-rdf-syntax-ns#"
   xmlns:svg="http://www.w3.org/2000/svg"
   xmlns="http://www.w3.org/2000/svg"
   xmlns:xlink="http://www.w3.org/1999/xlink"
   xmlns:sodipodi="http://sodipodi.sourceforge.net/DTD/sodipodi-0.dtd"
   xmlns:inkscape="http://www.inkscape.org/namespaces/inkscape"
   height="32"
   width="32"
   version="1.1"
   id="svg41"
   sodipodi:docname="italic.svg"
   inkscape:version="0.92.4 (unknown)"
   inkscape:export-filename="/home/rizmut/Dokumen/Rizmut/Github/libreoffice-style-elementary/images_elementary/cmd/32/de/italic.png"
   inkscape:export-xdpi="96"
   inkscape:export-ydpi="96">
  <metadata
     id="metadata47">
    <rdf:RDF>
      <cc:Work
         rdf:about="">
        <dc:format>image/svg+xml</dc:format>
        <dc:type
           rdf:resource="http://purl.org/dc/dcmitype/StillImage" />
        <dc:title />
      </cc:Work>
    </rdf:RDF>
  </metadata>
  <defs
     id="defs45">
    <radialGradient
       inkscape:collect="always"
       xlink:href="#e"
       id="radialGradient903"
       cx="11.680322"
       cy="15.261165"
       fx="11.680322"
       fy="15.261165"
       r="4.4556975"
       gradientTransform="matrix(-1.863628,-4.4565651e-8,6.077128e-8,-2.5413115,29.805481,50.079055)"
       gradientUnits="userSpaceOnUse" />
    <radialGradient
       inkscape:collect="always"
       xlink:href="#b"
       id="radialGradient922"
       gradientUnits="userSpaceOnUse"
       gradientTransform="matrix(1,0,0,0.75,-31.902462,9.8750008)"
       cx="40"
       cy="43.5"
       r="2" />
    <radialGradient
       inkscape:collect="always"
       xlink:href="#b"
       id="radialGradient924"
       gradientUnits="userSpaceOnUse"
       gradientTransform="matrix(1,0,0,0.75,-4,9.875)"
       cx="9"
       cy="43.5"
       r="2" />
    <linearGradient
       inkscape:collect="always"
       xlink:href="#d"
       id="linearGradient926"
       gradientUnits="userSpaceOnUse"
       x1="16"
       y1="44"
       x2="16"
       y2="41" />
  </defs>
  <sodipodi:namedview
     pagecolor="#ffffff"
     bordercolor="#666666"
     borderopacity="1"
     objecttolerance="10"
     gridtolerance="10"
     guidetolerance="10"
     inkscape:pageopacity="0"
     inkscape:pageshadow="2"
     inkscape:window-width="1366"
     inkscape:window-height="714"
     id="namedview43"
     showgrid="true"
     inkscape:zoom="14.75"
     inkscape:cx="12.312856"
     inkscape:cy="8.2074655"
     inkscape:window-x="0"
     inkscape:window-y="28"
     inkscape:window-maximized="1"
     inkscape:current-layer="g39">
    <inkscape:grid
       type="xygrid"
       id="grid854" />
  </sodipodi:namedview>
  <radialGradient
     id="a"
     cx="40"
     cy="43.5"
     gradientTransform="matrix(1,0,0,0.75,-31.902462,9.8750008)"
     gradientUnits="userSpaceOnUse"
     r="2"
     xlink:href="#b" />
  <linearGradient
     id="b">
    <stop
       offset="0"
       id="stop3" />
    <stop
       offset="1"
       stop-opacity="0"
       id="stop5" />
  </linearGradient>
  <radialGradient
     id="c"
     cx="9"
     cy="43.5"
     gradientTransform="matrix(1,0,0,0.75,-4,9.875)"
     gradientUnits="userSpaceOnUse"
     r="2"
     xlink:href="#b" />
  <linearGradient
     id="d"
     gradientUnits="userSpaceOnUse"
     x1="16"
     x2="16"
     y1="44"
     y2="41">
    <stop
       offset="0"
       stop-opacity="0"
       id="stop9" />
    <stop
       offset=".5"
       id="stop11" />
    <stop
       offset="1"
       stop-opacity="0"
       id="stop13" />
  </linearGradient>
  <radialGradient
     id="e"
     cx="12.279661"
     cy="7.140932"
     gradientTransform="matrix(-3.1675784,0.07135103,-0.0749702,-3.3513607,41.983743,34.643483)"
     gradientUnits="userSpaceOnUse"
     r="5.015671">
    <stop
       offset="0"
       stop-color="#737373"
       id="stop16" />
    <stop
       offset=".26238"
       stop-color="#636363"
       id="stop18" />
    <stop
       offset=".704952"
       stop-color="#4b4b4b"
       id="stop20" />
    <stop
       offset="1"
       stop-color="#3f3f3f"
       id="stop22" />
  </radialGradient>
  <g
     transform="matrix(1.333631 0 0 1.3158295 .527073 -10.963391)"
     id="g39">
    <g
       transform="matrix(0.60518445,0,0,1,2.2026057,-14.388724)"
       id="g31">
      <path
         d="m 8.0975375,41 v 3 h 0.5 c 0.831,0 1.5000005,-0.669 1.5000005,-1.5 0,-0.831 -0.6690005,-1.5 -1.5000005,-1.5 z"
         id="path25"
         style="opacity:0.2;fill:url(#a)"
         inkscape:connector-curvature="0" />
      <path
         d="M 4.40625,41 C 3.6271875,41 3,41.627187 3,42.40625 v 0.1875 C 3,43.372813 3.6271875,44 4.40625,44 H 5 v -3 z"
         id="path27"
         style="opacity:0.2;fill:url(#c)"
         inkscape:connector-curvature="0" />
      <path
         d="m 5,41 3.0975375,0 v 3 L 5,44 Z"
         id="path29"
         style="opacity:0.2;fill:url(#d)"
         inkscape:connector-curvature="0"
         sodipodi:nodetypes="ccccc" />
    </g>
    <g
       aria-label="K"
       transform="scale(0.99330354,1.0067416)"
       style="font-style:normal;font-variant:normal;font-weight:normal;font-stretch:normal;font-size:30.19550896px;line-height:1.25;font-family:'Droid Sans';-inkscape-font-specification:'Droid Sans';letter-spacing:0px;word-spacing:0px;fill:url(#radialGradient903);fill-opacity:1;stroke:#000000;stroke-width:0.7548877;stroke-opacity:0.6"
       id="text858">
      <path
         d="M 15.550599,28.279186 H 13.263124 L 9.8915384,20.71209 8.1352782,21.947976 6.866868,28.279186 H 4.8504211 L 8.0160259,12.42948 H 10.032473 L 8.4496704,20.354333 10.130043,18.533026 16.24443,12.42948 h 2.265793 l -7.0142,6.905788 z"
         style="font-style:italic;font-size:22.20259857px;fill:url(#radialGradient903);fill-opacity:1;stroke:#000000;stroke-width:0.7548877;stroke-opacity:0.6"
         id="path842" />
    </g>
    <g
       id="g920"
       transform="matrix(0.60518445,0,0,1,10.075848,-14.388724)">
      <path
         inkscape:connector-curvature="0"
         style="opacity:0.2;fill:url(#radialGradient922)"
         id="path914"
         d="m 8.0975375,41 v 3 h 0.5 c 0.831,0 1.5000005,-0.669 1.5000005,-1.5 0,-0.831 -0.6690005,-1.5 -1.5000005,-1.5 z" />
      <path
         inkscape:connector-curvature="0"
         style="opacity:0.2;fill:url(#radialGradient924)"
         id="path916"
         d="M 4.40625,41 C 3.6271875,41 3,41.627187 3,42.40625 v 0.1875 C 3,43.372813 3.6271875,44 4.40625,44 H 5 v -3 z" />
      <path
         sodipodi:nodetypes="ccccc"
         inkscape:connector-curvature="0"
         style="opacity:0.2;fill:url(#linearGradient926)"
         id="path918"
         d="m 5,41 h 3.0975375 v 3 H 5 Z" />
    </g>
    <path
       style="font-style:normal;font-variant:normal;font-weight:normal;font-stretch:normal;font-size:30.19550896px;line-height:1.25;font-family:'Droid Sans';-inkscape-font-specification:'Droid Sans';letter-spacing:0px;word-spacing:0px;fill:#ffffff;fill-opacity:1;stroke:none;stroke-width:1;stroke-opacity:0.6;opacity:0.2"
       d="M 11.146484 5.5019531 L 6.953125 26.498047 L 7.2519531 26.498047 L 11.146484 7.0019531 L 13.517578 7.0019531 L 13.816406 5.5019531 L 11.146484 5.5019531 z M 22.046875 5.5019531 L 13.947266 13.587891 L 12.103516 15.585938 L 11.720703 17.5 L 13.947266 15.087891 L 22.046875 7.0019531 L 23.523438 7.0019531 L 25.046875 5.5019531 L 22.046875 5.5019531 z M 16.226562 15.6875 L 15.755859 16.150391 L 20.447266 26.498047 L 21.126953 26.498047 L 16.226562 15.6875 z "
       transform="matrix(0.7498326,0,0,0.75997688,-0.39521652,8.3319237)"
       id="text949" />
  </g>
</svg>
